assets/sublime-text.svg

<?xml version="1.0" encoding="utf-8"?>
<!-- Generator: Adobe Illustrator 16.0.0, SVG Export Plug-In . SVG Version: 6.00 Build 0)  -->
<!DOCTYPE svg PUBLIC "-//W3C//DTD SVG 1.1//EN" "http://www.w3.org/Graphics/SVG/1.1/DTD/svg11.dtd">
<svg version="1.1" id="Layer_1" xmlns="http://www.w3.org/2000/svg" xmlns:xlink="http://www.w3.org/1999/xlink" x="0px" y="0px"
	 width="256px" height="256px" viewBox="0 0 256 256" enable-background="new 0 0 256 256" xml:space="preserve">
<path fill="#4C4C4C" d="M16.76,7.81c3.33-3.67,8.15-6.53,13.19-6.61c63.7,0.03,127.39,0,191.09,0.01c3.03,0.04,6.069-0.19,9.09,0.16
	c4.5,1.42,8.94,4.12,11.05,8.51c1.75,3.13,1.59,6.81,1.561,10.27c0.199,42.28,0.13,84.56,0.14,126.84
	c-0.13,22.07,0.29,44.15-0.33,66.199c-0.17-8.039-0.04-16.08-0.5-24.109c-1.8,6.18-7.31,11.439-14.021,11.3
	c-66,0.04-132.009-0.01-198.009,0.03c-7.3,0.27-13.62-5.08-16.06-11.721c-0.31,8.131-0.29,16.271-0.28,24.4
	c-0.73-6-0.18-12.06-0.38-18.08c0-57.71-0.07-115.42,0.08-173.12C13.19,17.03,13.29,11.63,16.76,7.81z"/>
<path fill="#D9D9D9" d="M242.74,20.15c2.8,0.27,5.84,0.24,8.26,1.9c2.6,1.57,3.88,4.46,5,7.14V231.5
	c-0.92,5.04-2.76,10.38-7.02,13.57c-3.431,2.58-7.98,1.93-11.99,2.05c-71.34-0.06-142.68-0.011-214.02-0.021
	C12.36,247.3,3.89,238.74,0,229.53V32.15c2.23-5.5,7.34-9.83,13.38-10.26c-0.15,57.7-0.08,115.41-0.08,173.12
	c0.2,6.021-0.35,12.08,0.38,18.08c1.6,7.37,8.67,13.221,16.26,13.1c66.07-0.029,132.14,0.021,198.21-0.02
	c7.149-0.061,13.3-6.07,14.399-12.98c0.62-22.049,0.2-44.129,0.33-66.199C242.87,104.71,242.939,62.43,242.74,20.15z"/>
<path fill="#FF8100" d="M99.48,58.5c9.2-10.45,24.18-14.08,37.6-12.16c10.5,1.38,20.4,6.35,28.02,13.66
	c-4.189,5.14-8.35,10.28-12.47,15.47c-7.68-6.16-17.819-10.37-27.75-7.97c-4.47,0.84-8.52,4.81-8.14,9.58
	c0.43,4.26,4.31,6.82,7.88,8.42c8.12,3.65,16.51,6.66,24.68,10.21c6.75,3.07,13.07,7.95,16.14,14.88
	c4.48,10.09,3.34,22.61-3.319,31.49c-5.05,6.85-12.79,11.311-20.94,13.38c-18.5,4.56-39.14-0.72-53.09-13.7
	c0.03-1.15,1.29-1.869,1.86-2.79c4.01-4.659,7.87-9.439,11.83-14.13c7.86,6.561,17.74,11.63,28.21,11.221
	c4.89-0.271,10.99-1.851,12.64-7.121c1.87-4.489-0.899-9.47-5.06-11.43c-8.83-4.479-18.24-7.7-27.19-11.93
	c-6.42-3.16-12.14-8.13-15.29-14.65C90.02,80.53,91.62,67.11,99.48,58.5z"/>
<path fill="#262626" d="M228.029,200.38c6.711,0.14,12.221-5.12,14.021-11.3c0.46,8.029,0.33,16.07,0.5,24.109
	c-1.1,6.91-7.25,12.92-14.399,12.98c-66.07,0.04-132.141-0.01-198.21,0.02c-7.59,0.121-14.66-5.729-16.26-13.1
	c-0.01-8.13-0.03-16.27,0.28-24.4c2.44,6.641,8.76,11.99,16.06,11.721C96.02,200.37,162.029,200.42,228.029,200.38z"/>
<path fill="#999999" d="M0,229.53c3.89,9.21,12.36,17.77,22.97,17.569c71.34,0.01,142.68-0.039,214.02,0.021
	c4.01-0.12,8.56,0.53,11.99-2.05c4.26-3.19,6.1-8.53,7.02-13.57v7.77c-1.24,6.19-4.21,12.681-10.391,15.261
	c-3.159,0.55-6.399,0.18-9.58,0.26C166.01,254.79,96,254.76,26,254.8c-3.21-0.1-6.69,0.54-9.61-1.13
	C8.57,250.23,1.59,243.57,0,234.9V229.53z"/>
</svg>

<?xml version="1.0" encoding="UTF-8" ?>
<!DOCTYPE svg PUBLIC "-//W3C//DTD SVG 1.1//EN" "http://www.w3.org/Graphics/SVG/1.1/DTD/svg11.dtd">
<svg width="256pt" height="256pt" viewBox="0 0 256 256" version="1.1" xmlns="http://www.w3.org/2000/svg">
<path fill="#ffffff" d=" M 0.00 0.00 L 256.00 0.00 L 256.00 29.19 C 254.88 26.51 253.60 23.62 251.00 22.05 C 248.58 20.39 245.54 20.42 242.74 20.15 C 242.77 16.69 242.93 13.01 241.18 9.88 C 239.07 5.49 234.63 2.79 230.13 1.37 C 227.11 1.02 224.07 1.25 221.04 1.21 C 157.34 1.20 93.65 1.23 29.95 1.20 C 24.91 1.28 20.09 4.14 16.76 7.81 C 13.29 11.63 13.19 17.03 13.38 21.89 C 7.34 22.32 2.23 26.65 0.00 32.15 L 0.00 0.00 Z" />
<path fill="#4c4c4c" d=" M 16.76 7.81 C 20.09 4.14 24.91 1.28 29.95 1.20 C 93.65 1.23 157.34 1.20 221.04 1.21 C 224.07 1.25 227.11 1.02 230.13 1.37 C 234.63 2.79 239.07 5.49 241.18 9.88 C 242.93 13.01 242.77 16.69 242.74 20.15 C 242.94 62.43 242.87 104.71 242.88 146.99 C 242.75 169.06 243.17 191.14 242.55 213.19 C 242.38 205.15 242.51 197.11 242.05 189.08 C 240.25 195.26 234.74 200.52 228.03 200.38 C 162.03 200.42 96.02 200.37 30.02 200.41 C 22.72 200.68 16.40 195.33 13.96 188.69 C 13.65 196.82 13.67 204.96 13.68 213.09 C 12.95 207.09 13.50 201.03 13.30 195.01 C 13.30 137.30 13.23 79.59 13.38 21.89 C 13.19 17.03 13.29 11.63 16.76 7.81 Z" />
<path fill="#d9d9d9" d=" M 242.74 20.15 C 245.54 20.42 248.58 20.39 251.00 22.05 C 253.60 23.62 254.88 26.51 256.00 29.19 L 256.00 231.50 C 255.08 236.54 253.24 241.88 248.98 245.07 C 245.55 247.65 241.00 247.00 236.99 247.12 C 165.65 247.06 94.31 247.11 22.97 247.10 C 12.36 247.30 3.89 238.74 0.00 229.53 L 0.00 32.15 C 2.23 26.65 7.34 22.32 13.38 21.89 C 13.23 79.59 13.30 137.30 13.30 195.01 C 13.50 201.03 12.95 207.09 13.68 213.09 C 15.28 220.46 22.35 226.31 29.94 226.19 C 96.01 226.16 162.08 226.21 228.15 226.17 C 235.30 226.11 241.45 220.10 242.55 213.19 C 243.17 191.14 242.75 169.06 242.88 146.99 C 242.87 104.71 242.94 62.43 242.74 20.15 Z" />
<path fill="#ff8100" d=" M 99.48 58.50 C 108.68 48.05 123.66 44.42 137.08 46.34 C 147.58 47.72 157.48 52.69 165.10 60.00 C 160.91 65.14 156.75 70.28 152.63 75.47 C 144.95 69.31 134.81 65.10 124.88 67.50 C 120.41 68.34 116.36 72.31 116.74 77.08 C 117.17 81.34 121.05 83.90 124.62 85.50 C 132.74 89.15 141.13 92.16 149.30 95.71 C 156.05 98.78 162.37 103.66 165.44 110.59 C 169.92 120.68 168.78 133.20 162.12 142.08 C 157.07 148.93 149.33 153.39 141.18 155.46 C 122.68 160.02 102.04 154.74 88.09 141.76 C 88.12 140.61 89.38 139.89 89.95 138.97 C 93.96 134.31 97.82 129.53 101.78 124.84 C 109.64 131.40 119.52 136.47 129.99 136.06 C 134.88 135.79 140.98 134.21 142.63 128.94 C 144.50 124.45 141.73 119.47 137.57 117.51 C 128.74 113.03 119.33 109.81 110.38 105.58 C 103.96 102.42 98.24 97.45 95.09 90.93 C 90.02 80.53 91.62 67.11 99.48 58.50 Z" />
<path fill="#262626" d=" M 228.03 200.38 C 234.74 200.52 240.25 195.26 242.05 189.08 C 242.51 197.11 242.38 205.15 242.55 213.19 C 241.45 220.10 235.30 226.11 228.15 226.17 C 162.08 226.21 96.01 226.16 29.94 226.19 C 22.35 226.31 15.28 220.46 13.68 213.09 C 13.67 204.96 13.65 196.82 13.96 188.69 C 16.40 195.33 22.72 200.68 30.02 200.41 C 96.02 200.37 162.03 200.42 228.03 200.38 Z" />
<path fill="#999999" d=" M 0.00 229.53 C 3.89 238.74 12.36 247.30 22.97 247.10 C 94.31 247.11 165.65 247.06 236.99 247.12 C 241.00 247.00 245.55 247.65 248.98 245.07 C 253.24 241.88 255.08 236.54 256.00 231.50 L 256.00 239.27 C 254.76 245.46 251.79 251.95 245.61 254.53 C 242.45 255.08 239.21 254.71 236.03 254.79 C 166.01 254.79 96.00 254.76 26.00 254.80 C 22.79 254.70 19.31 255.34 16.39 253.67 C 8.57 250.23 1.59 243.57 0.00 234.90 L 0.00 229.53 Z" />
<path fill="#ffffff" d=" M 0.00 234.90 C 1.59 243.57 8.57 250.23 16.39 253.67 C 19.31 255.34 22.79 254.70 26.00 254.80 C 96.00 254.76 166.01 254.79 236.03 254.79 C 239.21 254.71 242.45 255.08 245.61 254.53 C 251.79 251.95 254.76 245.46 256.00 239.27 L 256.00 256.00 L 0.00 256.00 L 0.00 234.90 Z" />
</svg>
